assets/Blue heart/Flat/blue_heart_flat.svg

<svg width="32" height="32" viewBox="0 0 32 32" fill="none" xmlns="http://www.w3.org/2000/svg">
<path d="M5.99987 5.99988C10.6646 3.66751 14.4999 6.49988 15.9999 8.49988C17.4999 6.49988 21.3351 3.66751 25.9999 5.99988C31.9999 8.99987 30.4999 16.4999 25.9999 20.9999C23.8041 23.1956 19.9371 27.0627 17.1087 29.2136C16.4552 29.7105 15.5614 29.6883 14.9226 29.1726C12.3299 27.0799 8.16491 23.1649 5.99987 20.9999C1.49986 16.4999 -0.000126839 8.99987 5.99987 5.99988Z" fill="#0074BA"/>
<path d="M15.9998 8.49986V11.549C17.2695 8.86489 20.4252 5.28039 25.6578 5.83733C21.1482 3.80611 17.463 6.54896 15.9998 8.49986Z" fill="#1345B7"/>
<path d="M11.9456 5.53679C10.2614 4.94993 8.22499 4.88733 5.99987 5.99988C-0.000126839 8.99987 1.49986 16.4999 5.99987 20.9999C8.16491 23.1649 12.3299 27.0799 14.9226 29.1726C15.5614 29.6883 16.4552 29.7105 17.1087 29.2136C17.3629 29.0203 17.6255 28.8131 17.8945 28.5945C15.0398 26.4522 11.0335 23.076 8.85898 21.1324C3.90218 16.7019 2.24993 9.31776 8.85898 6.36413C9.93279 5.88423 10.9667 5.62642 11.9456 5.53679Z" fill="#1345B7"/>
<ellipse cx="23.4771" cy="12.5936" rx="2.83554" ry="4.78125" transform="rotate(30 23.4771 12.5936)" fill="#5092FF"/>
</svg>

<svg xmlns="http://www.w3.org/2000/svg" width="32" height="32" fill="none"><path fill="#0074BA" d="M6 6c4.665-2.332 8.5.5 10 2.5 1.5-2 5.335-4.832 10-2.5 6 3 4.5 10.5 0 15-2.196 2.196-6.063 6.063-8.891 8.214a1.763 1.763 0 0 1-2.186-.041C12.33 27.08 8.165 23.165 6 21 1.5 16.5 0 9 6 6Z"/><path fill="#1345B7" d="M16 8.5v3.049c1.27-2.684 4.425-6.269 9.658-5.712-4.51-2.03-8.195.712-9.658 2.663ZM11.946 5.537C10.26 4.95 8.225 4.887 6 6 0 9 1.5 16.5 6 21c2.165 2.165 6.33 6.08 8.923 8.173a1.763 1.763 0 0 0 2.186.04c.254-.193.516-.4.785-.619-2.854-2.142-6.86-5.518-9.035-7.462-4.957-4.43-6.61-11.814 0-14.768a9.706 9.706 0 0 1 3.087-.827Z"/><ellipse cx="23.477" cy="12.594" fill="#5092FF" rx="2.836" ry="4.781" transform="rotate(30 23.477 12.594)"/></svg>
